X:1
T: Springlek efter Fjös Erik
C: Fjös Erik
S: Utlärd av Kalle Almlöf
Z: Karin Arén
M: 3/4
O: Lima
L: 1/8
K: D
|:vA2 d2 f2 | ud2 B2 g2 | vf>a g<f e>d | c2 e>d Bc/B/ | 
vA2 d2 f2 | ud2 B2 g2 | vf>a g<f e>d | cB/c/ d4 :|:
v[f2B2] [g2B2] [b2B2] | u[b2B2] [f2B2] [g2B2] | v[fA]>a g<f e>d | c2 e>d Bc/B/ | 
vA2 [g2B2] [b2B2] | u[b2B2] [f2B2] [g2B2] | v[fA]>a g<f e>d | cB/c/ d4 :|

